icons/Color/24/gimp-display-filter-clip-warning.svg

<svg height="24" viewBox="0 0 6.3499998 6.3500002" width="24" xmlns="http://www.w3.org/2000/svg"><g fill-rule="evenodd"><g transform="translate(.529167 -291.179133)"><path d="m-.264583 291.44373h5.820833v5.820833h-5.820833z" fill="#4040ff"/><path d="m-.26458335 291.44372 5.82083335 5.82083v-5.82083z" fill="#ff4040"/></g><g fill="#3030bf" transform="translate(0 .00001)"><path d="m.26458333.26458333.52916666.52916666-.52916666.52916661z"/><path d="m1.3229166 1.3229166.5291667.5291667-1.58749997 1.5875v-1.0583333z"/><path d="m2.38125 2.38125.5291666.5291666-2.64583327 2.6458333v-1.0583333z"/><path d="m3.4395833 3.4395833.5291667.5291667-2.1166667 2.1166666h-1.05833331z"/><path d="m4.4979166 4.4979166.5291667.5291667-1.0583333 1.0583333h-1.0583334z"/><path d="m5.5562499 5.5562499.5291667.5291667h-1.0583333z"/></g><g fill="#bf3030" transform="translate(0 .00001)"><path d="m.79374999.79374999.52916661.52916661 1.0583334-1.05833327h-1.0583334z"/><path d="m1.8520833 1.8520833.5291667.5291667 2.1166666-2.11666667h-1.0583333z"/><path d="m2.9104166 2.9104166.5291667.5291667 2.6458333-2.64583331v-.52916666h-.5291667z"/><path d="m3.96875 3.96875.5291666.5291666 1.5875-1.5875v-1.0583333z"/><path d="m5.0270833 5.0270833.5291666.5291666.5291667-.5291666v-1.0583333z"/></g></g><rect fill="none" height="6.089707" rx=".37189" ry=".407679" stroke="#888a85" stroke-width=".260293" width="6.089707" x=".130146" y=".13014"/><rect fill="none" height="5.582075" rx=".169367" ry=".166595" stroke="#fff" stroke-width=".238758" width="5.589702" x=".380149" y=".38396"/><path d="m0 .00001h6.35v6.35h-6.35z" fill="none"/></svg>

<?xml version="1.0" encoding="UTF-8" standalone="no"?>
<!-- Created with Inkscape (http://www.inkscape.org/) -->

<svg
   xmlns:osb="http://www.openswatchbook.org/uri/2009/osb"
   xmlns:dc="http://purl.org/dc/elements/1.1/"
   xmlns:cc="http://creativecommons.org/ns#"
   xmlns:rdf="http://www.w3.org/1999/02/22-rdf-syntax-ns#"
   xmlns:svg="http://www.w3.org/2000/svg"
   xmlns="http://www.w3.org/2000/svg"
   xmlns:xlink="http://www.w3.org/1999/xlink"
   xmlns:sodipodi="http://sodipodi.sourceforge.net/DTD/sodipodi-0.dtd"
   xmlns:inkscape="http://www.inkscape.org/namespaces/inkscape"
   width="24"
   height="24"
   viewBox="0 0 6.3499998 6.3500002"
   version="1.1"
   id="svg9286"
   inkscape:version="0.92.2 (5c3e80d, 2017-08-06)"
   sodipodi:docname="gimp-display-filter-clip-warning.svg">
  <title
     id="title13765">GIMP Clip-Warning Display Filter (24px)</title>
  <defs
     id="defs9280">
    <linearGradient
       gradientTransform="matrix(0.26458333,0,0,0.26458333,158.42384,85.500708)"
       gradientUnits="userSpaceOnUse"
       y2="1044.3622"
       x2="16"
       y1="1044.3622"
       x1="0"
       id="linearGradient7569"
       xlink:href="#linearGradient19282-4" />
    <linearGradient
       gradientTransform="matrix(0.34682586,0,0,0.30620888,-154.35207,-275.32445)"
       osb:paint="solid"
       id="linearGradient19282-4">
      <stop
         id="stop19284-0"
         offset="0"
         style="stop-color:#bebebe;stop-opacity:1;" />
    </linearGradient>
    <linearGradient
       id="linearGradient5140">
      <stop
         style="stop-color:#eeeeec;stop-opacity:1;"
         offset="0"
         id="stop5142" />
      <stop
         style="stop-color:#d4d4cf;stop-opacity:1;"
         offset="1"
         id="stop5144" />
    </linearGradient>
  </defs>
  <sodipodi:namedview
     id="base"
     pagecolor="#ffffff"
     bordercolor="#666666"
     borderopacity="1.0"
     inkscape:pageopacity="0.0"
     inkscape:pageshadow="2"
     inkscape:zoom="29.916667"
     inkscape:cx="9.9777159"
     inkscape:cy="12"
     inkscape:document-units="mm"
     inkscape:current-layer="layer1"
     showgrid="true"
     units="px"
     inkscape:window-width="1535"
     inkscape:window-height="876"
     inkscape:window-x="65"
     inkscape:window-y="24"
     inkscape:window-maximized="1"
     showguides="false">
    <inkscape:grid
       type="xygrid"
       id="grid13763"
       empspacing="4" />
  </sodipodi:namedview>
  <metadata
     id="metadata9283">
    <rdf:RDF>
      <cc:Work
         rdf:about="">
        <dc:format>image/svg+xml</dc:format>
        <dc:type
           rdf:resource="http://purl.org/dc/dcmitype/StillImage" />
        <dc:title>GIMP Clip-Warning Display Filter (24px)</dc:title>
        <dc:creator>
          <cc:Agent>
            <dc:title>Ell</dc:title>
          </cc:Agent>
        </dc:creator>
        <cc:license
           rdf:resource="http://creativecommons.org/licenses/by-sa/4.0/" />
      </cc:Work>
      <cc:License
         rdf:about="http://creativecommons.org/licenses/by-sa/4.0/">
        <cc:permits
           rdf:resource="http://creativecommons.org/ns#Reproduction" />
        <cc:permits
           rdf:resource="http://creativecommons.org/ns#Distribution" />
        <cc:requires
           rdf:resource="http://creativecommons.org/ns#Notice" />
        <cc:requires
           rdf:resource="http://creativecommons.org/ns#Attribution" />
        <cc:permits
           rdf:resource="http://creativecommons.org/ns#DerivativeWorks" />
        <cc:requires
           rdf:resource="http://creativecommons.org/ns#ShareAlike" />
      </cc:License>
    </rdf:RDF>
  </metadata>
  <g
     inkscape:label="Layer 1"
     inkscape:groupmode="layer"
     id="layer1"
     transform="translate(0,-290.64998)">
    <g
       id="gimp-display-filter-clip-warning-24">
      <g
         id="g52865">
        <g
           id="g52837">
          <g
             transform="translate(0.52916669,-0.52915323)"
             id="g9690">
            <g
               id="g48164">
              <rect
                 y="291.44373"
                 x="-0.26458335"
                 height="5.8208332"
                 width="5.8208332"
                 id="rect9668"
                 style="fill:#4040ff;fill-opacity:1;fill-rule:evenodd;stroke:none;stroke-width:0.26458332px;stroke-linecap:butt;stroke-linejoin:miter;stroke-opacity:1" />
              <path
                 inkscape:connector-curvature="0"
                 id="path9627-3"
                 d="M -0.26458335,291.44372 5.55625,297.26455 v -5.82083 z"
                 style="fill:#ff4040;fill-opacity:1;fill-rule:evenodd;stroke:none;stroke-width:0.26458332px;stroke-linecap:butt;stroke-linejoin:miter;stroke-opacity:1"
                 sodipodi:nodetypes="cccc" />
            </g>
          </g>
          <g
             id="g51672"
             transform="translate(0,290.64999)">
            <g
               id="g51611">
              <path
                 inkscape:connector-curvature="0"
                 id="path51593"
                 d="M 0.26458333,0.26458333 0.79374999,0.79374999 0.26458333,1.3229166 Z"
                 style="fill:#3030bf;fill-opacity:1;fill-rule:evenodd;stroke:none;stroke-width:0.26458332px;stroke-linecap:butt;stroke-linejoin:miter;stroke-opacity:1" />
              <path
                 inkscape:connector-curvature="0"
                 id="path51595"
                 d="m 1.3229166,1.3229166 0.5291667,0.5291667 -1.58749997,1.5875 V 2.38125 Z"
                 style="fill:#3030bf;fill-opacity:1;fill-rule:evenodd;stroke:none;stroke-width:0.26458332px;stroke-linecap:butt;stroke-linejoin:miter;stroke-opacity:1" />
              <path
                 inkscape:connector-curvature="0"
                 id="path51597"
                 d="M 2.38125,2.38125 2.9104166,2.9104166 0.26458333,5.5562499 V 4.4979166 Z"
                 style="fill:#3030bf;fill-opacity:1;fill-rule:evenodd;stroke:none;stroke-width:0.26458332px;stroke-linecap:butt;stroke-linejoin:miter;stroke-opacity:1" />
              <path
                 inkscape:connector-curvature="0"
                 id="path51599"
                 d="M 3.4395833,3.4395833 3.96875,3.96875 1.8520833,6.0854166 H 0.79374999 Z"
                 style="fill:#3030bf;fill-opacity:1;fill-rule:evenodd;stroke:none;stroke-width:0.26458332px;stroke-linecap:butt;stroke-linejoin:miter;stroke-opacity:1" />
              <path
                 inkscape:connector-curvature="0"
                 id="path51601"
                 d="M 4.4979166,4.4979166 5.0270833,5.0270833 3.96875,6.0854166 H 2.9104166 Z"
                 style="fill:#3030bf;fill-opacity:1;fill-rule:evenodd;stroke:none;stroke-width:0.26458332px;stroke-linecap:butt;stroke-linejoin:miter;stroke-opacity:1" />
              <path
                 inkscape:connector-curvature="0"
                 id="path51603"
                 d="M 5.5562499,5.5562499 6.0854166,6.0854166 H 5.0270833 Z"
                 style="fill:#3030bf;fill-opacity:1;fill-rule:evenodd;stroke:none;stroke-width:0.26458332px;stroke-linecap:butt;stroke-linejoin:miter;stroke-opacity:1" />
            </g>
            <g
               id="g51643">
              <path
                 inkscape:connector-curvature="0"
                 id="path51613"
                 d="M 0.79374999,0.79374999 1.3229166,1.3229166 2.38125,0.26458333 H 1.3229166 Z"
                 style="fill:#bf3030;fill-opacity:1;fill-rule:evenodd;stroke:none;stroke-width:0.26458332px;stroke-linecap:butt;stroke-linejoin:miter;stroke-opacity:1" />
              <path
                 inkscape:connector-curvature="0"
                 id="path51615"
                 d="M 1.8520833,1.8520833 2.38125,2.38125 4.4979166,0.26458333 H 3.4395833 Z"
                 style="fill:#bf3030;fill-opacity:1;fill-rule:evenodd;stroke:none;stroke-width:0.26458332px;stroke-linecap:butt;stroke-linejoin:miter;stroke-opacity:1" />
              <path
                 inkscape:connector-curvature="0"
                 id="path51632"
                 d="M 2.9104166,2.9104166 3.4395833,3.4395833 6.0854166,0.79374999 V 0.26458333 H 5.5562499 Z"
                 style="fill:#bf3030;fill-opacity:1;fill-rule:evenodd;stroke:none;stroke-width:0.26458332px;stroke-linecap:butt;stroke-linejoin:miter;stroke-opacity:1" />
              <path
                 inkscape:connector-curvature="0"
                 id="path51634"
                 d="m 3.96875,3.96875 0.5291666,0.5291666 1.5875,-1.5875 V 1.8520833 Z"
                 style="fill:#bf3030;fill-opacity:1;fill-rule:evenodd;stroke:none;stroke-width:0.26458332px;stroke-linecap:butt;stroke-linejoin:miter;stroke-opacity:1" />
              <path
                 inkscape:connector-curvature="0"
                 id="path51636"
                 d="M 5.0270833,5.0270833 5.5562499,5.5562499 6.0854166,5.0270833 V 3.96875 Z"
                 style="fill:#bf3030;fill-opacity:1;fill-rule:evenodd;stroke:none;stroke-width:0.26458332px;stroke-linecap:butt;stroke-linejoin:miter;stroke-opacity:1" />
            </g>
          </g>
        </g>
        <g
           id="g52841">
          <rect
             style="color:#000000;display:inline;overflow:visible;visibility:visible;opacity:1;fill:none;fill-opacity:1;fill-rule:evenodd;stroke:#888a85;stroke-width:0.26029277;stroke-linecap:butt;stroke-linejoin:miter;stroke-miterlimit:4;stroke-dasharray:none;stroke-dashoffset:0;stroke-opacity:1;marker:none;marker-start:none;marker-mid:none;marker-end:none;enable-background:accumulate"
             id="rect4559-7"
             width="6.0897074"
             height="6.0897074"
             x="0.13014638"
             y="290.78012"
             rx="0.37189049"
             ry="0.40767914" />
          <rect
             ry="0.16659535"
             rx="0.16936749"
             y="291.03394"
             x="0.38014907"
             height="5.5820751"
             width="5.5897021"
             id="rect5148-0"
             style="color:#000000;display:inline;overflow:visible;visibility:visible;opacity:1;fill:none;fill-opacity:1;fill-rule:evenodd;stroke:#ffffff;stroke-width:0.23875797;stroke-linecap:butt;stroke-linejoin:miter;stroke-miterlimit:4;stroke-dasharray:none;stroke-dashoffset:0;stroke-opacity:1;marker:none;marker-start:none;marker-mid:none;marker-end:none;enable-background:accumulate" />
        </g>
      </g>
      <rect
         y="290.64999"
         x="0"
         height="6.3499999"
         width="6.3499999"
         id="rect52867"
         style="fill:none;fill-rule:evenodd;stroke:none;stroke-width:0.26458332px;stroke-linecap:butt;stroke-linejoin:miter;stroke-opacity:1" />
    </g>
  </g>
</svg>
